assets/2023/icons/protobuf.svg

<!-- Copyright 2000-2022 JetBrains s.r.o. and contributors. Use of this source code is governed by the Apache 2.0 license. -->
<svg width="16" height="16" viewBox="0 0 16 16" fill="none" xmlns="http://www.w3.org/2000/svg">
<path d="M12.5122 12.2474L13.875 10.4077L12.0911 8L8.94434 12.2474H12.5122Z" fill="#FFC107"/>
<path d="M15.3632 8.3982C15.5456 8.15199 15.5456 7.8487 15.3632 7.60249L12.5113 3.7533H8.94434L13.875 10.4084L15.3632 8.3982Z" fill="#0F9D58"/>
<path d="M3.48786 3.75262L2.125 5.59227L3.90891 8.00001L7.05568 3.75262H3.48786Z" fill="#DB4437"/>
<path d="M0.636798 7.60177C0.454401 7.84798 0.454401 8.15127 0.636798 8.39749L3.48867 12.2467H7.05563L2.12495 5.59222L0.636798 7.60177Z" fill="#4285F4"/>
</svg>

<svg xmlns="http://www.w3.org/2000/svg" width="16" height="16" fill="none" viewBox="0 0 16 16"><path fill="#FFC107" d="m12.512 12.247 1.363-1.84L12.091 8l-3.147 4.247z"/><path fill="#0F9D58" d="M15.363 8.398a.65.65 0 0 0 0-.796l-2.852-3.849H8.944l4.931 6.655z"/><path fill="#DB4437" d="m3.488 3.753-1.363 1.84L3.909 8l3.147-4.247z"/><path fill="#4285F4" d="M.637 7.602a.65.65 0 0 0 0 .795l2.852 3.85h3.567L2.125 5.592z"/></svg>
